website/public/logo.svg

<svg viewBox="0 0 21 19" fill="none" xmlns="http://www.w3.org/2000/svg">
    <g clip-path="url(#clip0_15_2)">
        <path d="M10.5 11.45C11.6046 11.45 12.5 10.5545 12.5 9.44995C12.5 8.34538 11.6046 7.44995 10.5 7.44995C9.39543 7.44995 8.5 8.34538 8.5 9.44995C8.5 10.5545 9.39543 11.45 10.5 11.45Z"
              fill="currentColor"/>
        <path d="M10.5 13.9501C16.0228 13.9501 20.5 11.9354 20.5 9.45007C20.5 6.96479 16.0228 4.95007 10.5 4.95007C4.97715 4.95007 0.5 6.96479 0.5 9.45007C0.5 11.9354 4.97715 13.9501 10.5 13.9501Z"
              stroke="currentColor"/>
        <path d="M6.6029 11.7C9.36432 16.483 13.3477 19.3529 15.5 18.1103C17.6523 16.8677 17.1585 11.983 14.3971 7.20005C11.6357 2.41712 7.65233 -0.452846 5.50001 0.789795C3.34769 2.03244 3.84147 6.91712 6.6029 11.7Z"
              stroke="currentColor"/>
        <path d="M6.6029 7.20005C3.84147 11.983 3.34769 16.8677 5.50001 18.1103C7.65233 19.3529 11.6357 16.483 14.3971 11.7C17.1585 6.91712 17.6523 2.03244 15.5 0.789795C13.3477 -0.452846 9.36432 2.41712 6.6029 7.20005Z"
              stroke="currentColor"/>
    </g>
    <defs>
        <clipPath id="clip0_15_2">
            <rect width="21" height="18.9" fill="white"/>
        </clipPath>
    </defs>
</svg>

<svg xmlns="http://www.w3.org/2000/svg" fill="none" viewBox="0 0 21 19">
    <g clip-path="url(#a)">
        <path fill="currentColor" d="M10.5 11.45a2 2 0 1 0 0-4 2 2 0 0 0 0 4"/>
        <path stroke="currentColor" d="M10.5 13.95c5.52 0 10-2.01 10-4.5s-4.48-4.5-10-4.5-10 2.01-10 4.5 4.48 4.5 10 4.5Z"/>
        <path stroke="currentColor" d="M6.6 11.7c2.76 4.78 6.75 7.65 8.9 6.41s1.66-6.13-1.1-10.91S7.65-.45 5.5.79 3.84 6.92 6.6 11.7Z"/>
        <path stroke="currentColor" d="M6.6 7.2c-2.76 4.78-3.25 9.67-1.1 10.91s6.14-1.63 8.9-6.41S17.65 2.03 15.5.79 9.36 2.42 6.6 7.2Z"/>
    </g>
    <defs>
        <clipPath id="a">
            <path fill="#fff" d="M0 0h21v18.9H0z"/>
        </clipPath>
    </defs>
</svg>
